!!!OTL: Im Wald bei der Amsel.
!!!OTL-incipit: GESTERN ABEND IN DER STILLEN RUH
!!!ARE: Europa, Mitteleuropa, Deutschland, Nord - Deutschland
!!!SCT: Z1149
!!!TXL: @@DE
!!!YEM: Copyright 1995, estate of Helmut Schaffrath.
**kern	**text
*ICvox	*
*M3/4	*
*k[]	*
*a:	*
!LO:TX:a:t=Norddeutſch.	!
{16a	Ge-
16a	-ſtern
8a	A-
8a	-bend
=1	=1
4.a	in
8g#	der
8a	ſtil-
8b/	-len
=2	=2
4.a}	Ruh',
{8a	hört'
8b/	ich
8cc	im
=3	=3
2dd	Wald
4cc	der
=4	=4
8cc	Amſel
8b	.
4b	ʒu:
4r}	.
=5	=5
{4.b	Als
8b	ich
8b	nun
8b	da
=6	=6
2.b}	ſaß,
=7	=7
{4.b	mei-
8a	-ner
8b	ſchier
8cc	ver-
=8	=8
2b	-gaß,
4r}	.
=9	=9
{8b	ſprach
8cc	mein
4dd	Schatʒ:
4cc	nun
=10	=10
8.cc	hab'
16b	ich
4b	dich,
4r}	.
=11	=11
{8a	komm
8b/	nur
4cc	her
4b	und
=12	=12
8.b/	küſ-
16a	-ſe
4a	mich.
4r}	.
==	==
!!!AGN: Liebes - Lied
!!!ONB: ESAC (Essen Associative Code) Database: ZUCCAL
!!!AMT: simple triple
!!!AIN: vox
!!!EED: Helmut Schaffrath
!!!EEV: 1.0
!!!GTL: V. Lieder der Minne.
!!!URL-scan: https://www.digitale-sammlungen.de/de/view/bsb11160573?page=327
!!!ENC: Anna Maria Matuszewska
!!!EEV: 2025/02/05
*-	*-
